public/twitter.svg

<svg width="32" height="32" viewBox="0 0 32 32" fill="none" xmlns="http://www.w3.org/2000/svg">
<g clip-path="url(#clip0_6_282)">
<path d="M32 6.08005C30.8267 6.61338 29.5467 6.93338 28.2667 7.14672C29.6533 6.29338 30.6133 5.01338 31.1467 3.52005C29.8667 4.26672 28.48 4.80005 26.9867 5.12005C25.8133 3.84005 24.1067 3.09338 22.1867 3.09338C18.56 3.09338 15.68 6.08005 15.68 9.70672C15.68 10.2401 15.68 10.7734 15.7867 11.2C10.3467 10.7734 5.44 8.21338 2.24 4.16005C1.70667 5.22672 1.28 6.29338 1.28 7.46672C1.28 9.70672 2.45333 11.7334 4.16 12.9067C3.09333 12.9067 2.02667 12.5867 1.17333 12.0534C1.17333 12.0534 1.17333 12.0534 1.17333 12.16C1.17333 15.3601 3.41333 18.0267 6.4 18.56C5.86667 18.6667 5.33333 18.7734 4.69333 18.7734C4.26667 18.7734 3.84 18.7734 3.41333 18.6667C4.26667 21.2267 6.72 23.1467 9.49333 23.2534C7.25333 24.96 4.48 26.0267 1.38667 26.0267C0.853333 26.0267 0.32 26.0267 -0.213333 25.92C2.66667 27.84 6.18667 28.9067 9.81333 28.9067C21.8667 28.9067 28.48 18.8801 28.48 10.2401C28.48 9.92005 28.48 9.70672 28.48 9.38672C29.9733 8.53338 31.1467 7.36005 32 6.08005Z" fill="#536471"/>
</g>
<defs>
<clipPath id="clip0_6_282">
<rect width="32" height="32" fill="white"/>
</clipPath>
</defs>
</svg>

<svg width="32" height="32" fill="none" xmlns="http://www.w3.org/2000/svg"><g clip-path="url(#a)"><path d="M32 6.08c-1.173.533-2.453.853-3.733 1.067 1.386-.854 2.346-2.134 2.88-3.627a14.035 14.035 0 0 1-4.16 1.6c-1.174-1.28-2.88-2.027-4.8-2.027-3.627 0-6.507 2.987-6.507 6.614 0 .533 0 1.066.107 1.493-5.44-.427-10.347-2.987-13.547-7.04-.533 1.067-.96 2.133-.96 3.307 0 2.24 1.173 4.266 2.88 5.44a5.735 5.735 0 0 1-2.987-.854v.107c0 3.2 2.24 5.867 5.227 6.4-.533.107-1.067.213-1.707.213-.426 0-.853 0-1.28-.106.854 2.56 3.307 4.48 6.08 4.586-2.24 1.707-5.013 2.774-8.106 2.774-.534 0-1.067 0-1.6-.107 2.88 1.92 6.4 2.987 10.026 2.987 12.054 0 18.667-10.027 18.667-18.667v-.853A10.511 10.511 0 0 0 32 6.08z" fill="#536471"/></g><defs><clipPath id="a"><path fill="#fff" d="M0 0h32v32H0z"/></clipPath></defs></svg>
